X:1
T:Prelude
T:Prelude
T:Op. 28 No. 24
T:Frédéric Chopin
C:Frédéric Chopin
%%score { ( 1 4 ) | ( 2 3 ) }
L:1/8
Q:1/4=130
M:6/8
K:F
V:1 treble nm="鋼琴" snm="Pno."
V:4 treble 
V:2 bass 
V:3 bass 
V:1
!f!"^Allegro appassionato" z6 | z6 |!f!!>(! (A2 F!>)!!mf! D3- | D3!<(! FA>d!<)! | %4
!f!!>(! c4- c>B!>)! |!mf! A3) z2 z/ (A/ | A2 z/ F/({DEF)} !>!E!>!D) z | z2!<(! (F Ad>f!<)! | %8
!f!!>(! e4- e>d!>)! |!mf! A2{A=B}!<(! !trill(!TB4{AB}!<)! |!f! c3 _B2 A | %11
 !trill(!TG3{FG} !>!A2 z/ F/ | C6) | %13
"^con brio"[Q:1/4=108]!<(! (28:6:28!>!C63/64D63/64C63/64[Q:1/4=110]=B,63/64C63/64D63/64E63/64[Q:1/4=112]F63/64G63/64A63/64_B63/64[Q:1/4=114]c63/64d63/64e63/64(f63/64g63/64[Q:1/4=116]a63/64b63/64c'63/64d'63/64[Q:1/4=120]e'63/64!8va(!f'63/64g'63/64a'63/64[Q:1/4=126]b'63/64c''63/64d''63/64e''63/64!<)! | %14
[Q:1/4=130] f''2)!8va)! z z2 z | (!trill(!T=B3{AB} c2 z/ A/ | %16
 E2)"_con impeto" (!>!f'2-[Q:1/4=68] (13:2:13f'e'c'afecAFE[K:bass]CA,F, | %17
[Q:1/4=130] E,2)[Q:1/4=68] (28:4:28(E,63/64F,63/64E,63/64^D,63/64!<(!E,63/64^F,63/64^G,63/64A,63/64=B,63/64C63/64[K:treble]=D63/64E63/64^F63/64^G63/64A63/64=B63/64c63/64d63/64e63/64^f63/64^g63/64a63/64=b63/64c'63/64d'63/64e'63/64^f'63/64!<)!^g'63/64 | %18
[Q:1/4=130] .a'2) z4 | z6 |!f!!>(! (E2 C!>)!!mf! A,3- | A,3!<(! CE>A!<)! |!f!!>(! G4- G>F!>)! | %23
!mf! E3) z2 z/ (E/ | E2 z/ C/({A,=B,C)} !>!B,!>!A,) z | z2!<(! C EA>c!<)! |!f!!>(! =B4- B>A!>)! | %27
!mf! E2{E^F}!<(! !trill(!TF4{EF}!<)! |!f! G3 F2 E | !trill(!TD3{CD} !>!E2 z/ C/ | G,6 | %31
[Q:1/4=108]"_impetuoso" (28:6:28(!>!G,63/64A,63/64G,63/64[Q:1/4=110]^F,63/64G,63/64!<(!A,63/64=B,63/64[Q:1/4=112]C63/64D63/64E63/64F63/64G63/64A63/64[Q:1/4=114]=B63/64c63/64d63/64e63/64f63/64g63/64[Q:1/4=116]a63/64=b63/64!8va(!c'63/64d'63/64[Q:1/4=120]e'63/64f'63/64g'63/64[Q:1/4=126]a'63/64=b'63/64!<)! | %32
[Q:1/4=130] .c''2)!8va)! z z2 z | (!trill(!T^F3{EF} G2 z/ E/ | %34
 =B,2) (!>!c'-[Q:1/4=78] (13:3:13c'=bgec=BGE[K:bass]C=B,G,E,C, | %35
[Q:1/4=130] !>!=B,,3-)[Q:1/4=68]!<(! (19:3:19(B,,C,^D,^G,A,C[K:treble]^D^FAc^d^fac'!8va(!^d'^f'a'c''^d''!<)! | %36
[Q:1/4=130] .e''2)!8va)! z (!>!G3- | G2 G{G_B} _A2) z/ (G/ |!>(! G2!>)! _E C3-) | %39
!<(! (C3 _EG>!<)!!f!c |!>(! B2 _A!>)!!mf! _E3-) |!<(! E (_A>A!<)!"^con forza"!f!"_cresc." x3 | %42
!>(! _A2 F!>)! _D3- |!f!!<(! D2 F _A_d>f!<)! |!ff!!>(! _e2 _d!>)!!f! _A3) | %45
 z2!p! (F _A"_un poco espressivo"_d>f | _e2 _d !>!=A3-) | A(AA AFz/G/ | !>!A6-) | %49
!<(! A([Aa][Aa]"^" [Aa]{[cc']}[Bb]>!<)![Aa] |!f!!>(! [Aa]2!>)!!mf! [Ff] [Dd]3-) | %51
 ([Dd]2 [Ff]"_cresc." [Aa][dd']>[ff'] | [ee']2 [dd']) ([Gg][dd']>[ff'] | %53
[Q:1/4=128] [ee']2[Q:1/4=120] [dd'])[Q:1/4=116] ([^G^g][Q:1/4=112][dd'][Q:1/4=108][ff'])[Q:1/4=124] | %54
!ff![Q:1/4=80]!8va(! (3([d''f'']/[^c''e'']/"_con audacia"[=c''_e'']/[Q:1/4=84] (3[=b'd'']/[_b'_d'']/[a'c'']/[Q:1/4=90] (3[^g'=b']/[=g'_b']/[^f'a']/[Q:1/4=96] (3[=f'_a']/[=e'g']/[^d'^f']/ (3[=d'=f']/[^c'e']/[=c'_e']/ (3[=b=d']/[_b_d']/[=ac']/!8va)! | %55
 (3[^g=b]/[=g_b]/[^fa]/ (3[=f_a]/[=eg]/[^d^f]/ (3[=d=f]/[^ce]/[=c_e]/ (3[=Bd]/[^A^c]/[=A=c]/ (3[^GB]/[=G_B]/[^FA]/ (3.[=F^G]/.[=EG]/.[DG]/ | %56
[Q:1/4=130] A,2) z/ (A/ !>!A3- | AG>F (7:6:7E/F/E/D/E/F/D/ | %58
 .[A,A]) z"_cresc." .[Aa]!8va(! (!>![aa']3- | %59
 [aa'][gg']>[ff'] (7:6:8[ee']/[ff']/[ee']/[dd']/[ee']/.[ff']/)z/4[Q:1/4=60]([dd']/4 | %60
!fff![Q:1/4=136] [bb'][ee'][ff'] [aa'][gg']!8va)![Bb] | [dd'][Gg][Aa] [cc'][Bb])z/([Ee]/ | %62
 [Gg][B,B][Cc] [Ee][Dd][G,G] | !>![B,B]3[K:bass] !>![^C,^C]3 | !>![D,D]2) z4 | %65
[K:treble]"_sempre "!ff!!8va(!!>(! (!>![f'f''-]2[Q:1/4=90] (22:4:22f''e''d''=b'=g'f'e'd'!8va)!=b=g!>)!!f!fed=B=GFED[K:bass]=B,=G,F,E, | %66
[Q:1/4=136] !>!D,4) z2 |[K:treble] (!>![=B,=B]3 !>![_B,_B]3 | !>![A,FA]2) z z2 z | %69
!8va(!!>(! (!>![f'f''-]2[Q:1/4=90] (22:4:22f''e''d''=b'=g'f'e'd'!8va)!=b=g!>)!fed=B=GFED[K:bass]=B,=G,F,E, | %70
[Q:1/4=136] !>!D,4) z2 | %71
[K:treble]"_stretto" (5:3:5(!>![=B,F=B][B,FB][B,FB]!<(![B,FB][B,FB] (5:3:5!>![B,FB][_B,F_B][B,FB][B,FB]!<)![B,FB] | %72
[Q:1/4=110] !arpeggio!.[A,FA]2) z!8va(! !>![d'd'']3 | %73
!fff! (24:6:24b'a'f'd'!8va)!bafdBAFD[I:staff +1]B,A,F,D,B,,A,,F,,D,,B,,,A,,,F,,,E,,, | %74
[I:staff -1] z6 | z6 | !fermata!z6[Q:1/4=24] |] %77
V:2
!ped! (D,,/A,,/F,/D,,/A,) (D,,/A,,/F,/D,,/A,) | (D,,/A,,/F,/D,,/A,) (D,,/A,,/F,/D,,/A,) | %2
!mf!!>(! (D,,/A,,/F,/D,,/A,)!>)!!mp! (D,,/A,,/F,/D,,/A,) | %3
 (D,,/A,,/F,/D,,/A,)!<(! (D,,/A,,/F,/D,,/A,)!ped-up!!<)! | %4
!mf!!ped!!>(! (D,,/A,,/F,/D,,/A,) (D,,/A,,/F,/D,,/A,)!ped-up!!>)! | %5
!mf!!ped! (D,,/A,,/F,/D,,/A,) (D,,/A,,/F,/D,,/A,)!ped-up! | %6
!ped! (D,,/A,,/F,/D,,/A,) (D,,/A,,/F,/D,,/A,) | %7
 (D,,/A,,/F,/D,,/!<(!A,) (D,,/A,,/F,/D,,/A,)!ped-up!!<)! | %8
!mf!!>(!!ped! (D,,/A,,/F,/D,,/A,) (D,,/A,,/F,/D,,/A,)!>)! | %9
!mf! (D,,/A,,/F,/D,,/!<(!A,)!ped-up!!ped! (D,,/G,,/F,/D,,/A,)!<)!!ped-up! | %10
!mf!!ped! (C,,/A,,/F,/C,,/A,) (C,,/A,,/F,/C,,/A,)!ped-up! | %11
!ped! (C,,/G,,/F,/C,,/G,) (C,,/G,,/F,/C,,/G,)!ped-up! | %12
!ped! (C,,/B,,/F,/C,,/G,) (C,,/B,,/F,/C,,/G,)!ped-up! | %13
!ped!!<(! (C,,/B,,/E,/C,,/G,) (C,,/B,,/E,/C,,/G,)!ped-up!!<)! | %14
!ped! (F,,/C,/A,/F,,/C) (F,,/C,/A,/F,,/C)!ped-up! | %15
!ped! (F,,/^D,/A,/F,,/=B,) (F,,/=B,,/A,/F,,/B,)!ped-up! | %16
!ped! (E,,/C,/A,/E,,/C) (E,,/C,/A,/E,,/C)!ped-up! | %17
!ped! (E,,/D,/^G,/E,,/=B,) (E,,/D,/G,/E,,/B,)!ped-up! | %18
!ped! (A,,,/E,,/C,/A,,,/E,) (A,,,/E,,/C,/A,,,/E,) | %19
 (A,,,/E,,/C,/A,,,/E,) (A,,,/E,,/C,/A,,,/E,)!ped-up! | %20
!mf!!>(!!ped! (A,,,/E,,/C,/A,,,/E,)!>)!!mp! (A,,,/E,,/C,/A,,,/E,) | %21
 (A,,,/E,,/C,/A,,,/E,)!<(! (A,,,/E,,/C,/A,,,/E,)!ped-up!!<)! | %22
!mf!!ped!!>(! (A,,,/E,,/C,/A,,,/E,) (A,,,/E,,/C,/A,,,/E,)!ped-up!!>)! | %23
!mf!!ped! (A,,,/E,,/C,/A,,,/E,) (A,,,/E,,/C,/A,,,/E,)!ped-up! | %24
!ped! (A,,,/E,,/C,/A,,,/E,) (A,,,/E,,/C,/A,,,/E,) | %25
 (A,,,/E,,/C,/A,,,/!<(!E,) (A,,,/E,,/C,/A,,,/E,)!ped-up!!<)! | %26
!mf!!>(!!ped! (A,,,/E,,/C,/A,,,/E,) (A,,,/E,,/C,/A,,,/E,)!>)! | %27
!mf! (A,,,/E,,/C,/A,,,/!<(!E,)!ped-up!!ped! (A,,,/D,,/C,/A,,,/E,)!<)!!ped-up! | %28
!mf!!ped! (G,,,/E,,/C,/G,,,/E,) (G,,,/E,,/C,/G,,,/E,)!ped-up! | %29
!ped! (G,,,/D,,/C,/G,,,/D,) (G,,,/D,,/C,/G,,,/D,)!ped-up! | %30
!ped! (G,,,/F,,/C,/G,,,/D,) (G,,,/F,,/C,/G,,,/D,)!ped-up! | %31
!ped!!<(! (G,,,/F,,/=B,,/G,,,/D,) (G,,,/F,,/B,,/G,,,/D,)!ped-up!!<)! | %32
!ped! (C,,/G,,/E,/C,,/G,) (C,,/G,,/E,/C,,/G,)!ped-up! | %33
!ped! (C,,/B,,/E,/C,,/^F,) (C,,/^F,,/E,/C,,/F,)!ped-up! | %34
!ped! (=B,,,/G,,/E,/B,,,/G,) (B,,,/G,,/E,/B,,,/G,)!ped-up! | %35
!ped! (=B,,,/A,,/^D,/B,,,/^F,) (B,,,/A,,/D,/B,,,/F,)!ped-up! | %36
!ped! (E,,/=B,,/G,/E,,/=B,) (E,,/B,,/G,/E,,/B,)!ped-up! | %37
!ped! (!>!_E,,/=B,,/G,/E,,/=B,)!ped-up!!ped! (!>!D,,/B,,/F,/D,,/G,)!ped-up! | %38
!ped! (C,,/G,,/_E,/C,,/G,) (C,,/G,,/E,/C,,/G,) | (C,,/G,,/_E,/C,,/G,) (C,,/G,,/E,/C,,/G,)!ped-up! | %40
!>(!!ped! (C,,/_A,,/_E,/C,,/_A,)!>)!!mp! (C,,/A,,/E,/C,,/A,)!ped-up! | %41
!<(!!ped! (C,,/_A,,/_E,/C,,/_A,)!<)!!mf! (C,,/A,,/E,/C,,/A,)!ped-up! | %42
!ped! (_D,,/_A,,/F,/D,,/_A,) (D,,/A,,/F,/D,,/A,) | %43
!<(! (_D,,/_A,,/F,/D,,/_A,) (D,,/A,,/F,/D,,/A,)!<)! | %44
!f!!>(! (_D,,/_A,,/F,/D,,/_A,)!>)!!mf! (D,,/A,,/F,/D,,/A,) | %45
"_una corda" (_D,,/_A,,/F,/D,,/_A,) (D,,/A,,/F,/D,,/A,)!ped-up! | %46
!ped! (_D,,/=A,,/F,/D,,/A,) (D,,/A,,/F,/D,,/A,) | (_D,,/A,,/F,/D,,/A,) (D,,/A,,/F,/D,,/A,) | %48
 (_D,,/A,,/F,/D,,/A,)"_tre corde" (D,,/A,,/F,/D,,/A,) | %49
!<(! (^C,,/A,,/F,/C,,/A,) (C,,/A,,/F,/C,,/A,)!ped-up!!<)! | %50
!mf!!>(!!ped! (D,,/A,,/F,/D,,/!>)!A,)!mp! (D,,/A,,/F,/D,,/A,) | %51
 (D,,/A,,/F,/D,,/A,)!<(! (D,,/A,,/F,/D,,/A,)!ped-up! | %52
!ped! (B,,,/G,,/D,/B,,,/E,) (B,,,/G,,/D,/B,,,/E,)!ped-up! | %53
!ped! (B,,,/^G,,/D,/B,,,/F,) (B,,,/G,,/D,/B,,,/F,)!<)! | %54
!f! (B,,,/^G,,/D,/B,,,/F,) (B,,,/G,,/D,/B,,,/F,) | %55
 (B,,,/^G,,/D,/B,,,/F,) (B,,,/G,,/D,/B,,,/F,)!ped-up! | %56
!ped! (A,,,/F,,/D,/A,,,/F,) (A,,,/F,,/D,/A,,,/F,) | (A,,,/F,,/D,/A,,,/F,) (A,,,/F,,/D,/A,,,/F,) | %58
 (A,,,/F,,/D,/A,,,/!<(!F,) (A,,,/F,,/D,/A,,,/F,) | %59
 (A,,,/F,,/D,/A,,,/F,) (A,,,/F,,/D,/A,,,/F,)!ped-up!!<)! | %60
!ff!!ped! (A,,,/G,,/D,/A,,,/E,) (A,,,/G,,/D,/A,,,/E,)!ped-up! | %61
!ped! (A,,,/G,,/D,/A,,,/E,)!ped-up!!ped! (A,,,/G,,/D,/A,,,/E,)!ped-up! | %62
!ped! (A,,,/G,,/D,/A,,,/E,)!ped-up!!ped! (A,,,/G,,/D,/A,,,/E,)!ped-up! | %63
!ped! (A,,,/G,,/D,/A,,,/E,)!ped-up!!ped! (A,,,/G,,/A,,/A,,,/E,)!ped-up! | %64
!ped! (D,,/A,,/F,/D,,/A,) (D,,/A,,/F,/D,,/A,)!ped-up! | %65
!f!!>(!!ped! (D,,/^G,,/F,/D,,/^G,) (D,,/G,,/!>)!!mf!F,/D,,/G,)!ped-up! | %66
!ped! (D,,/A,,/F,/D,,/A,) (D,,/A,,/F,/D,,/A,)!ped-up! | %67
!f!!ped! (D,,/^G,,/F,/D,,/^G,) (D,,/G,,/F,/D,,/G,)!ped-up! | %68
!ped! (D,,/A,,/F,/D,,/A,) (D,,/A,,/F,/D,,/A,)!ped-up! | %69
!ped! (D,,/^G,,/F,/D,,/^G,) (D,,/G,,/F,/D,,/G,)!ped-up! | %70
!ped! (D,,/A,,/F,/D,,/A,) (D,,/A,,/F,/D,,/A,)!ped-up! | %71
!f!!ped! (D,,/^G,,/F,/D,,/^G,)!ped-up!!ped! (D,,/G,,/F,/D,,/G,)!ped-up! | %72
!ped! !arpeggio![D,,A,,F,]2 z[K:treble] !>![FAdf]3 |[K:bass] z6!ped-up! | %74
!fff!"_m.g."!ped! !>!!^!D,,,4 z2 | !>!!^!D,,,4 z2 | !>!!^!D,,,4 !fermata!z2!ped-up! |] %77
V:3
 x/ A,,2 x A,,2 x/ | x/ A,,2 x A,,2 x/ | x/ A,,2 x A,,2 x/ | x/ A,,2 x A,,2 x/ | %4
 x/ A,,2 x A,,2 x/ | x/ A,,2 x A,,2 x/ | x/ A,,2 x A,,2 x/ | x/ A,,2 x A,,2 x/ | %8
 x/ A,,2 x A,,2 x/ | x/ A,,2 x G,,2 x/ | x/ A,,2 x7/2 | x6 | x6 | x6 | x6 | x6 | x6 | x6 | x6 | %19
 x6 | x6 | x6 | x6 | x6 | x6 | x6 | x6 | x6 | x6 | x6 | x6 | x6 | x6 | x6 | x6 | x6 | x6 | x6 | %38
 x6 | x6 | x6 | x6 | x6 | x6 | x6 | x6 | x6 | x6 | x6 | x6 | x6 | x6 | x6 | x6 | x6 | x6 | x6 | %57
 x6 | x6 | x6 | x6 | x6 | x6 | x6 | x6 | x181/30 | x6 | x6 | x6 | x181/30 | x6 | x6 | %72
 x3[K:treble] x3 |[K:bass] x6 | x6 | x6 | x6 |] %77
V:4
 x6 | x6 | x6 | x6 | x6 | x6 | x6 | x6 | x6 | x6 | x6 | x6 | x6 | x143/32!8va(! x49/32 | %14
 x2!8va)! x4 | x6 | x133/24[K:bass] x15/32 | x41/12[K:treble] x31/12 | x6 | x6 | x6 | x6 | x6 | %23
 x6 | x6 | x6 | x6 | x6 | x6 | x6 | x6 | x143/32!8va(! x49/32 | x2!8va)! x4 | x6 | %34
 x29/6[K:bass] x7/6 | x79/20[K:treble] x19/15!8va(! x19/24 | x2!8va)! x4 | x6 | x6 | x6 | x6 | %41
 x3 _A/F/_G/_E/G/_A,/ | x6 | x6 | x6 | x6 | x6 | x6 | x6 | x6 | x6 | x6 | x6 | x6 | %54
!8va(! x6!8va)! | x6 | x6 | x6 | x3!8va(! x3 | x6 | x5!8va)! x | x6 | x6 | x3[K:bass] x3 | x6 | %65
[K:treble]!8va(! x52/15!8va)! x11/6[K:bass] x11/15 | x6 |[K:treble] F6 | x6 | %69
!8va(! x52/15!8va)! x11/6[K:bass] x11/15 | x6 |[K:treble] x6 | x3!8va(! x3 | x!8va)! x5 | x6 | x6 | %76
 x6 |] %77

